icons/linear-ele-office-folder-opened.svg

<svg xmlns="http://www.w3.org/2000/svg" width="32px" height="32px" viewBox="0 0 32 32" version="1.1">
    <title>linear-ele-office-folder-opened</title>
    <g id="linear-ele-office-folder-opened" stroke-width="1" fill-rule="evenodd">
        <path d="M13,4 C13.2652165,4 13.5195704,4.10535684 13.7071068,4.29289322 L17.415,8 L27,8 C27.5128358,8 27.9355072,8.38604019 27.9932723,8.88337887 L28,9 L27.9993915,12 L30,12 C30.6643789,12 31.1440429,12.6359049 30.9615239,13.2747211 L26.9615239,27.2747211 C26.8388664,27.7040227 26.4464804,28 26,28 L4,28 C3.43190276,28 2.99886207,27.5350504 2.99939154,27.0009002 L3,5 C3,4.44771525 3.44771525,4 4,4 L13,4 Z M28.674,14 L8.754,14 L5.325,26 L25.245,26 L28.674,14 Z M12.585,6 L5,6 L4.99939154,19.862 L7.03847605,12.7252789 C7.16113364,12.2959773 7.55351964,12 8,12 L25.9993915,12 L26,10 L17,10 C16.7789863,10 16.565516,9.92683553 16.3919705,9.79391937 L16.2928932,9.70710678 L12.585,6 Z" id="&#24418;&#29366;" fill-rule="nonzero" />
    </g>
</svg>

<svg xmlns="http://www.w3.org/2000/svg" viewBox="0 0 32 32"><path fill="currentColor" d="M13 4a1 1 0 0 1 .707.293L17.415 8H27a1 1 0 0 1 .993.883L28 9v3h2a1 1 0 0 1 .962 1.275l-4 14A1 1 0 0 1 26 28H4a1 1 0 0 1-1-1V5a1 1 0 0 1 1-1zm15.674 10H8.754L5.325 26h19.92zM12.585 6H5v13.862l2.038-7.137A1 1 0 0 1 8 12h18v-2h-9a1 1 0 0 1-.608-.206l-.1-.087z"/></svg>
